icons/html5.svg

<svg
  width="24"
  height="24"
  viewBox="0 0 24 24"
  xmlns="http://www.w3.org/2000/svg"
  fill="none"
  stroke="currentColor"
  stroke-width="2"
  stroke-linecap="round"
  stroke-linejoin="round"
>
  <path d="M5.5 19L4 3h16l-1.5 16-6.5 2-6.5-2z" />
  <path d="M16 7H7.5l.5 4.5h8l-.5 4.5-3.5 1-3.5-1-.5-1.5" />
</svg>

<svg width="24" height="24" viewBox="0 0 24 24" fill="none" xmlns="http://www.w3.org/2000/svg">
<path d="M5.5 19L4 3H20L18.5 19L12 21L5.5 19Z" stroke="white" stroke-width="2" stroke-linecap="round" stroke-linejoin="round"/>
<path d="M16 7H7.5L8 11.5H16L15.5 16L12 17L8.5 16L8 14.5" stroke="white" stroke-width="2" stroke-linecap="round" stroke-linejoin="round"/>
</svg>
